img/social/1.svg

<svg width="53" height="52" viewBox="0 0 53 52" fill="none" xmlns="http://www.w3.org/2000/svg">
<g clip-path="url(#clip0_1_18)">
<path d="M25.9998 2.00012C39.255 2.00012 50.0001 12.7452 50.0001 25.9997C50.0001 39.2548 39.2549 50.0003 25.9998 50.0003C12.7453 50.0003 2.00011 39.2548 2.00011 25.9997C2.00011 12.7452 12.7453 2.00012 25.9998 2.00012Z" fill="black" fill-opacity="0.01" stroke="white" stroke-width="2"/>
<g clip-path="url(#clip1_1_18)">
<path d="M30.6636 17.151H32.9458V13.176C32.5521 13.1219 31.1979 13 29.6208 13C26.3302 13 24.0761 15.0698 24.0761 18.874V22.375H20.4448V26.8187H24.0761V38H28.5281V26.8198H32.0125L32.5656 22.376H28.5271V19.3146C28.5281 18.0302 28.874 17.151 30.6636 17.151Z" fill="white"/>
</g>
</g>
<defs>
<clipPath id="clip0_1_18">
<rect width="53" height="52" fill="white"/>
</clipPath>
<clipPath id="clip1_1_18">
<rect width="25" height="25" fill="white" transform="translate(14 13)"/>
</clipPath>
</defs>
</svg>

<svg width="53" height="52" fill="none" xmlns="http://www.w3.org/2000/svg"><g clip-path="url(#clip0_1_18)"><path d="M26 2c13.255 0 24 10.745 24 24S39.255 50 26 50 2 39.255 2 26 12.745 2 26 2z" fill="#000" fill-opacity=".01" stroke="#fff" stroke-width="2"/><g clip-path="url(#clip1_1_18)"><path d="M30.664 17.151h2.282v-3.975c-.394-.054-1.748-.176-3.325-.176-3.29 0-5.545 2.07-5.545 5.874v3.501h-3.631v4.444h3.631V38h4.452V26.82h3.485l.553-4.444h-4.039v-3.061c.001-1.285.347-2.164 2.137-2.164z" fill="#fff"/></g></g><defs><clipPath id="clip0_1_18"><path fill="#fff" d="M0 0h53v52H0z"/></clipPath><clipPath id="clip1_1_18"><path fill="#fff" transform="translate(14 13)" d="M0 0h25v25H0z"/></clipPath></defs></svg>
